Flat-Remix-Light/panel/indicator-keyboard-Uz.svg

<svg xmlns="http://www.w3.org/2000/svg" width="22" height="22" version="1.1">
 <defs>
  <style id="current-color-scheme" type="text/css">
   .ColorScheme-Text { color:#31363b; } .ColorScheme-Highlight { color:#3daee9; }
  </style>
 </defs>
 <rect style="opacity:0" width="22" height="22" x="0" y="0"/>
 <path style="fill:none;stroke:currentColor;stroke-width:1.99999976;stroke-linecap:round;stroke-linejoin:bevel" class="ColorScheme-Text" d="m 9.0000034,7.0048001 -3.8e-6,5.9999999 c 0,1.000449 -3.8e-6,2.000449 -1.0000062,2.000449 -0.3954482,0 -0.610938,0.0096 -0.9999912,-4.48e-4 -0.3838563,0.0015 -7.5e-6,4.48e-4 -1.0000062,4.48e-4 -1.0000025,0 -0.999995,-1 -0.999995,-2.000449 l 3.8e-6,-5.9999999"/>
 <path style="fill:none;stroke:currentColor;stroke-width:1.99999976;stroke-linecap:round;stroke-linejoin:round" class="ColorScheme-Text" d="m 13,6.9999994 3.999999,0 L 13,15.000001 l 3.999999,0 0,0"/>
</svg>

<svg xmlns="http://www.w3.org/2000/svg" width="12pt" height="12pt" version="1.1" viewBox="0 0 12 12">
 <g>
  <path style="fill:none;stroke-width:2;stroke-linecap:round;stroke-linejoin:bevel;stroke:rgb(19.215686%,21.176471%,23.137255%)" d="M 9 7.007812 L 9 13.007812 C 9 14.007812 9 15.007812 8 15.007812 C 7.601562 15.007812 7.390625 15.015625 7 15.007812 C 6.617188 15.007812 7 15.007812 6 15.007812 C 5 15.007812 5 14.007812 5 13.007812 L 5 7.007812" transform="matrix(0.5,0,0,0.5,0.5,0.5)"/>
  <path style="fill:none;stroke-width:2;stroke-linecap:round;stroke-linejoin:round;stroke:rgb(19.215686%,21.176471%,23.137255%)" d="M 13 7 L 17 7 L 13 15 L 17 15" transform="matrix(0.5,0,0,0.5,0.5,0.5)"/>
 </g>
</svg>
